public/assets/svg/logos/logo-vertical.svg

<svg width="99" height="104" viewBox="0 0 99 104" fill="none" xmlns="http://www.w3.org/2000/svg">
<g clip-path="url(#clip0)">
<path d="M1 87.1V58.9H19.3V64.1H7.8V70.2H16.4V75.4H7.8V87.1H1Z" fill="#377dff"/>
<path d="M28.8 64.7V68.9C30.4 66 32.5 64.5 35.2 64.5V71.5H33.5C31.9 71.5 30.7 71.9 30 72.6C29.2 73.4 28.8 74.7 28.8 76.5V87.1H22V64.7H28.8Z" fill="#377dff"/>
<path d="M38.7001 84.2C36.4001 82.1 35.3 79.3 35.3 75.8C35.3 72.3 36.4001 69.6 38.7001 67.5C40.9001 65.4 43.7 64.4 47 64.4C50.3 64.4 53.1 65.4 55.3 67.5C57.5 69.6 58.6 72.3 58.6 75.8C58.6 79.3 57.5 82 55.3 84.2C53.1 86.4 50.3 87.4 47 87.4C43.7 87.4 41.0001 86.3 38.7001 84.2ZM50.3 80.1C51.2 79.1 51.7001 77.7 51.7001 75.9C51.7001 74.1 51.2 72.7 50.3 71.7C49.4 70.7 48.3 70.3 47 70.3C45.7 70.3 44.6001 70.8 43.7001 71.7C42.8001 72.7 42.3 74 42.3 75.9C42.3 77.8 42.8001 79.1 43.7001 80.1C44.6001 81.1 45.8 81.5 47 81.5C48.2 81.5 49.4 81 50.3 80.1Z" fill="#377dff"/>
<path d="M67.9 64.7V68C69.3 65.6 71.6 64.5 74.7 64.5C77.3 64.5 79.3 65.4 80.9 67.1C82.5 68.8 83.3 71.1 83.3 74.1V87.2H76.5V74.9C76.5 73.5 76.1 72.3 75.4 71.5C74.6 70.7 73.6 70.3 72.3 70.3C71 70.3 69.9 70.7 69.2 71.5C68.4 72.3 68.1 73.4 68.1 74.9V87.1H61V64.7H67.9Z" fill="#377dff"/>
<path d="M96.4999 81.3H98.8999V87.1H95.3999C92.8999 87.1 90.9999 86.5 89.5999 85.4C88.1999 84.3 87.4999 82.4 87.4999 79.7V70.4H85.3999V64.7H87.4999V59.2H94.2999V64.7H98.7999V70.4H94.2999V79.7C94.3999 80.7 95.0999 81.3 96.4999 81.3Z" fill="#377dff"/>
<path opacity="0.65" d="M50 41C40.1 41 32 33 32 23C32 13.1 40 5 50 5H61.3C65 5 68 8 68 11.7V23C68 32.9 59.9 41 50 41Z" fill="#377dff"/>
<path opacity="0.5" d="M55 35.9C45.1 35.9 37 27.9 37 17.9C37 8.00002 45 -0.0999756 55 -0.0999756H66.3C70 2.44156e-05 73 3.00002 73 6.60002V18C73 27.9 65 35.9 55 35.9Z" fill="#00DFFC"/>
<path opacity="0.7" d="M45 46C35.1 46 27 38 27 28C27 18.1 35 10 45 10H56.3C60 10 62.9 13 62.9 16.6V28C62.9 38 54.9 46 45 46Z" fill="#377dff"/>
<path d="M44.3999 34V18.3H54.5999V21.2001H48.1999V24.6H52.9999V27.5H48.1999V34H44.3999Z" fill="white"/>
</g>
<defs>
<clipPath id="clip0">
<rect width="98.9" height="103.2" fill="white"/>
</clipPath>
</defs>
</svg>

<?xml version="1.0" encoding="utf-8"?>
<!-- Generator: Adobe Illustrator 22.0.1, SVG Export Plug-In . SVG Version: 6.00 Build 0)  -->
<svg xmlns="http://www.w3.org/2000/svg" xmlns:xlink="http://www.w3.org/1999/xlink" x="0px" y="0px" width="98.9px" height="103.2px"
     viewBox="0 0 98.9 103.2" style="enable-background:new 0 0 98.9 103.2;" xml:space="preserve">
<style type="text/css">
	.logo-vertical-0{fill:#377dff;}
	.logo-vertical-1{fill:#377dff;}
	.logo-vertical-2{fill:#00DFFC;}
	.logo-vertical-3{fill:#FFFFFF;}
</style>
    <g>
	<path class="logo-vertical-0" d="M1,87.1V58.9h18.3v5.2H7.8v6.1h8.6v5.2H7.8v11.7H1z"/>
        <path class="logo-vertical-0" d="M28.8,64.7v4.2c1.6-2.9,3.7-4.4,6.4-4.4v7h-1.7c-1.6,0-2.8,0.4-3.5,1.1c-0.8,0.8-1.2,2.1-1.2,3.9v10.6H22V64.7
		H28.8z"/>
        <path class="logo-vertical-0" d="M38.7,84.2c-2.3-2.1-3.4-4.9-3.4-8.4c0-3.5,1.1-6.2,3.4-8.3c2.2-2.1,5-3.1,8.3-3.1s6.1,1,8.3,3.1
		c2.2,2.1,3.3,4.8,3.3,8.3c0,3.5-1.1,6.2-3.3,8.4s-5,3.2-8.3,3.2S41,86.3,38.7,84.2z M50.3,80.1c0.9-1,1.4-2.4,1.4-4.2
		s-0.5-3.2-1.4-4.2s-2-1.4-3.3-1.4c-1.3,0-2.4,0.5-3.3,1.4c-0.9,1-1.4,2.3-1.4,4.2s0.5,3.2,1.4,4.2c0.9,1,2.1,1.4,3.3,1.4
		S49.4,81,50.3,80.1z"/>
        <path class="logo-vertical-0" d="M67.9,64.7V68c1.4-2.4,3.7-3.5,6.8-3.5c2.6,0,4.6,0.9,6.2,2.6c1.6,1.7,2.4,4,2.4,7v13.1h-6.8V74.9
		c0-1.4-0.4-2.6-1.1-3.4c-0.8-0.8-1.8-1.2-3.1-1.2s-2.4,0.4-3.1,1.2c-0.8,0.8-1.1,1.9-1.1,3.4v12.2H61V64.7H67.9z"/>
        <path class="logo-vertical-0" d="M96.5,81.3h2.4v5.8h-3.5c-2.5,0-4.4-0.6-5.8-1.7c-1.4-1.1-2.1-3-2.1-5.7v-9.3h-2.1v-5.7h2.1v-5.5h6.8v5.5h4.5
		v5.7h-4.5v9.3C94.4,80.7,95.1,81.3,96.5,81.3z"/>
</g>
    <g>
	<path class="logo-vertical-1" opacity=".65" d="M50,41L50,41c-9.9,0-18-8-18-18v0c0-9.9,8-18,18-18h11.3C65,5,68,8,68,11.7V23C68,32.9,59.9,41,50,41z"/>
        <path class="logo-vertical-2" opacity=".5" d="M55,35.9L55,35.9c-9.9,0-18-8-18-18v0c0-9.9,8-18,18-18l11.3,0C70,0,73,3,73,6.6V18C73,27.9,65,35.9,55,35.9z"
        />
        <path class="logo-vertical-0" opacity=".7" d="M45,46L45,46c-9.9,0-18-8-18-18v0c0-9.9,8-18,18-18h11.3c3.7,0,6.6,3,6.6,6.6V28C62.9,38,54.9,46,45,46z"/>
        <g>
		<path class="logo-vertical-3" d="M44.4,34V18.3h10.2v2.9h-6.4v3.4h4.8v2.9h-4.8V34H44.4z"/>
	</g>
</g>
</svg>
